index_assets/photo-camera.svg

<?xml version='1.0' encoding='utf-8'?>
<!DOCTYPE svg PUBLIC '-//W3C//DTD SVG 1.1//EN' 'http://www.w3.org/Graphics/SVG/1.1/DTD/svg11.dtd'>
<svg version="1.1" xmlns="http://www.w3.org/2000/svg" viewBox="0 0 512 512" xmlns:xlink="http://www.w3.org/1999/xlink" enable-background="new 0 0 512 512">
  <g>
    <g>
      <path d="m434.2,109.1h-89.7l-23.4-57.8c-3.1-7.7-10.6-12.8-18.9-12.8h-92.3c-8.3,0-15.8,5-18.9,12.8l-23.4,57.8h-89.8c-36.9,0-66.8,30-66.8,66.8v230.7c0,36.9 30,66.8 66.8,66.8h356.3c36.9,0 66.8-30 66.8-66.8v-230.7c0.1-36.8-29.9-66.8-66.7-66.8zm-210.6-29.8h64.8l12,29.7h-88.9l12.1-29.7zm236.6,327.3c0,14.3-11.7,26-26,26h-356.4c-14.3,0-26-11.7-26-26v-230.7c0-14.3 11.7-26 26-26h356.3c14.3,0 26,11.7 26,26v230.7z"/>
      <path d="m256,179.7c-61.5,0-111.6,50.1-111.6,111.6 0,61.6 50.1,111.6 111.6,111.6s111.6-50.1 111.6-111.6c0-61.6-50.1-111.6-111.6-111.6zm0,182.4c-39,0-70.8-31.8-70.8-70.8 0-39 31.8-70.8 70.8-70.8 39,0 70.8,31.8 70.8,70.8 0,39-31.8,70.8-70.8,70.8z"/>
    </g>
  </g>
</svg>

<?xml version="1.0" encoding="UTF-8" standalone="no"?>
<!DOCTYPE svg PUBLIC "-//W3C//DTD SVG 1.1//EN" "http://www.w3.org/Graphics/SVG/1.1/DTD/svg11.dtd">
<svg width="100%" height="100%" viewBox="0 0 512 512" version="1.1" xmlns="http://www.w3.org/2000/svg" xmlns:xlink="http://www.w3.org/1999/xlink" xml:space="preserve" xmlns:serif="http://www.serif.com/" style="fill-rule:evenodd;clip-rule:evenodd;stroke-linejoin:round;stroke-miterlimit:2;">
    <g>
        <path d="M434.2,109.1L344.5,109.1L321.1,51.3C318,43.6 310.5,38.5 302.2,38.5L209.9,38.5C201.6,38.5 194.1,43.5 191,51.3L167.6,109.1L77.8,109.1C40.9,109.1 11,139.1 11,175.9L11,406.6C11,443.5 41,473.4 77.8,473.4L434.1,473.4C471,473.4 500.9,443.4 500.9,406.6L500.9,175.9C501,139.1 471,109.1 434.2,109.1ZM223.6,79.3L288.4,79.3L300.4,109L211.5,109L223.6,79.3ZM460.2,406.6C460.2,420.9 448.5,432.6 434.2,432.6L77.8,432.6C63.5,432.6 51.8,420.9 51.8,406.6L51.8,175.9C51.8,161.6 63.5,149.9 77.8,149.9L434.1,149.9C448.4,149.9 460.1,161.6 460.1,175.9L460.1,406.6L460.2,406.6Z" style="fill:white;fill-rule:nonzero;"/>
        <path d="M256,179.7C194.5,179.7 144.4,229.8 144.4,291.3C144.4,352.9 194.5,402.9 256,402.9C317.5,402.9 367.6,352.8 367.6,291.3C367.6,229.7 317.5,179.7 256,179.7ZM256,362.1C217,362.1 185.2,330.3 185.2,291.3C185.2,252.3 217,220.5 256,220.5C295,220.5 326.8,252.3 326.8,291.3C326.8,330.3 295,362.1 256,362.1Z" style="fill:white;fill-rule:nonzero;"/>
    </g>
</svg>
